outputs/icons/navigation/hamburger_menu_navigation_rail_sharp.svg

<svg xmlns="http://www.w3.org/2000/svg" width="1200" height="1200" fill="none"><g clip-path="url(#a)"><path fill="#000" d="M150 900h400V800H150zm0-250h400V550H150zm0-350v100h400V300z"/></g><defs><clipPath id="a"><path fill="#fff" d="M0 0h1200v1200H0z"/></clipPath></defs></svg>

<svg width="1200" height="1200" viewBox="0 0 1200 1200" fill="none" xmlns="http://www.w3.org/2000/svg"><g clip-path="url(#clip0_662_1866)"><path d="M150 900H550V800H150V900ZM150 650H550V550H150V650ZM150 300V400H550V300H150Z" fill="black"/></g><defs><clipPath id="clip0_662_1866"><path width="24" fill="white" d="M0 0H1200V1200H0V0z"/></clipPath></defs></svg>
